build/img/main/p3.svg

<svg width="117" height="62" viewBox="0 0 117 62" fill="none" xmlns="http://www.w3.org/2000/svg">
<path fill-rule="evenodd" clip-rule="evenodd" d="M10.769 26.3713V21.1986C10.769 18.7302 10.0666 18.2039 8.75204 18.2039C7.3654 18.2039 6.68108 18.7484 6.68108 21.1986V27.1881C6.68108 30.6728 17.432 40.2923 17.432 45.2109V53.7958C17.432 60.1483 12.8579 61.9814 8.71602 61.9814C4.59212 61.9995 0 60.1664 0 53.8139V51.1822L6.66307 47.2437V53.1968C6.66307 55.6471 7.34739 56.1916 8.73403 56.1916C10.0666 56.1916 10.751 55.6471 10.751 53.1968V48.0786C10.769 41.2542 0 35.4644 0 27.5511V20.5997C0 14.2654 4.59212 12.4141 8.69801 12.4141C12.8399 12.4141 17.414 14.2654 17.414 20.5997V22.342L10.769 26.3713Z" fill="white"/>
<path fill-rule="evenodd" clip-rule="evenodd" d="M55.5381 55.4293H60.9406L62.7774 61.9451H48.875V12.4141H55.5381V55.4293Z" fill="white"/>
<path fill-rule="evenodd" clip-rule="evenodd" d="M108.969 12.4141V18.9299H102.612V61.9451H95.9306V18.9299H90.0959L89.3936 12.4141H108.969Z" fill="white"/>
<path fill-rule="evenodd" clip-rule="evenodd" d="M82.5499 12.4141H72.5553L67.459 61.9451H73.5098L74.9504 48.7864H79.6686L80.9292 61.9451H87.6643L82.5499 12.4141ZM75.5627 42.2706L77.0034 24.1026H77.8138L79.0383 42.2706H75.5627Z" fill="white"/>
<path fill-rule="evenodd" clip-rule="evenodd" d="M31.352 12.4141H24.3828V61.9451H31.0459V18.3672C33.7651 18.3672 35.1338 18.4943 35.1338 23.1406V34.9925C35.1338 36.5897 33.7111 37.0798 32.1444 37.1887L33.7111 43.0692C39.0596 42.5066 41.7968 40.0019 41.7968 32.9779V22.1787C41.7968 15.4269 38.7174 12.4141 31.352 12.4141Z" fill="white"/>
<path fill-rule="evenodd" clip-rule="evenodd" d="M110.805 6.49703V1.94141H112.84C113.254 1.94141 113.578 1.97771 113.794 2.05031L114.298 2.4859C114.424 2.7037 114.496 2.9215 114.496 3.1756C114.496 3.5023 114.388 3.77454 114.172 3.99234C113.974 4.21014 113.632 4.35534 113.2 4.40979L113.56 4.62759C113.74 4.79094 113.884 4.99059 114.064 5.24468L114.857 6.47888H114.082L113.47 5.53508C113.308 5.26283 113.146 5.06319 113.038 4.89984L112.732 4.60944L112.443 4.48239L112.119 4.46424H111.417V6.49703H110.805ZM111.435 3.93789H112.732C113.02 3.93789 113.236 3.90159 113.38 3.84714L113.74 3.5749L113.866 3.1756L113.614 2.64925C113.47 2.50405 113.218 2.4496 112.876 2.4496H111.435V3.93789Z" fill="white"/>
<path fill-rule="evenodd" clip-rule="evenodd" d="M108.266 4.33782C108.266 6.71546 110.229 8.65749 112.642 8.65749C115.037 8.65749 117 6.71546 117 4.33782C117 1.94204 115.037 0 112.642 0C110.229 0 108.266 1.96019 108.266 4.33782ZM108.806 4.33782C108.806 2.23244 110.535 0.526347 112.642 0.526347C114.749 0.526347 116.459 2.23244 116.459 4.33782C116.459 6.42506 114.749 8.1493 112.642 8.1493C110.517 8.1493 108.806 6.44321 108.806 4.33782Z" fill="white"/>
</svg>

<svg width="117" height="62" fill="none" xmlns="http://www.w3.org/2000/svg"><path fill-rule="evenodd" clip-rule="evenodd" d="M10.769 26.371V21.2c0-2.469-.702-2.995-2.017-2.995-1.387 0-2.07.544-2.07 2.995v5.99c0 3.484 10.75 13.103 10.75 18.022v8.585c0 6.352-4.574 8.185-8.716 8.185C4.592 62 0 60.166 0 53.814v-2.632l6.663-3.938v5.953c0 2.45.684 2.995 2.071 2.995 1.333 0 2.017-.545 2.017-2.995v-5.118C10.769 41.254 0 35.464 0 27.55V20.6c0-6.335 4.592-8.186 8.698-8.186 4.142 0 8.716 1.851 8.716 8.186v1.742l-6.645 4.03zM55.538 55.43h5.403l1.836 6.515H48.875v-49.53h6.663v43.014zm53.431-43.016v6.516h-6.357v43.015h-6.681V18.93h-5.835l-.702-6.516h19.575zm-26.419 0h-9.995L67.46 61.945h6.05l1.441-13.159h4.719l1.26 13.16h6.735L82.55 12.413zm-6.987 29.857l1.44-18.168h.81l1.225 18.168h-3.475zM31.352 12.414h-6.97v49.531h6.664V18.367c2.72 0 4.088.127 4.088 4.774v11.852c0 1.597-1.423 2.087-2.99 2.196l1.567 5.88c5.349-.562 8.086-3.067 8.086-10.091v-10.8c0-6.751-3.08-9.764-10.445-9.764zm79.453-5.917V1.941h2.035c.414 0 .738.037.954.11l.504.435c.126.218.198.435.198.69 0 .326-.108.599-.324.816-.198.218-.54.363-.972.418l.36.218c.18.163.324.363.504.617l.793 1.234h-.775l-.612-.944c-.162-.272-.324-.472-.432-.635l-.306-.29-.289-.128-.324-.018h-.702v2.033h-.612zm.63-2.56h1.297c.288 0 .504-.035.648-.09l.36-.272.126-.4-.252-.526c-.144-.145-.396-.2-.738-.2h-1.441v1.489z" fill="#fff"/><path fill-rule="evenodd" clip-rule="evenodd" d="M108.266 4.338c0 2.377 1.963 4.32 4.376 4.32 2.395 0 4.358-1.943 4.358-4.32C117 1.942 115.037 0 112.642 0c-2.413 0-4.376 1.96-4.376 4.338zm.54 0c0-2.106 1.729-3.812 3.836-3.812a3.815 3.815 0 013.817 3.812 3.826 3.826 0 01-3.817 3.811c-2.125 0-3.836-1.706-3.836-3.811z" fill="#fff"/></svg>
